X:76
T:My Nannie O
C:arr. Carlo Minasi
M:C
L:1/8
B:Chappell's One Hundred Scotch Melodies
B:Arranged for the Concertina by Carlo Minasi
Q:"Andante  "1/4=140
Z:Peter Dunk 2012
K:Eb
!p!(EF)|(G2C2)([G3=B,3]F)|[E2C2] ([D=B,]>C) C2 (C>D)|\
[E3C3] F (GFGB)|[c2E2A,2]([F=A,]>G) [E2B,2] (E>F)|
%
[G2E2][B2G2] ([AF][GE]FE)|([F2D2][G2E2]) L([e3G3C3] d)|\
([c3A3E3] [BGE]) (GFG[=BF])|[c2E2] (C>D) C2||
%
([GE][AF])|([B3G3] [cA]) ([cA][BG][AF][GE])|\
[e2G2] ([BG]>[cA]) [B2G2] (ed)|([c3A3] d) ([eG]de[fcA])|\
[g2=B2G2] [cE]>[dF] [c2E2] (_BA) &x6 D2|
%
[G2E2]e2 (BGFE)|[F2C2A,2][G2B,2G,2] L([e3G3C3]d)|\
([c3A3E3] [BGE]) (G>FG[=BF])|[c2E2] C>D C2||

